src/assets/tokens/ir-bera.svg

<svg width="192" height="128" viewBox="0 0 192 128" fill="none" xmlns="http://www.w3.org/2000/svg">
<g clip-path="url(#clip0_71_2021)">
<g clip-path="url(#clip1_71_2021)">
<path d="M128 64C128 99.3475 99.3475 128 64 128C28.6525 128 0 99.3475 0 64C0 28.6525 28.6525 0 64 0C99.3475 0 128 28.6525 128 64Z" fill="#0A0A0A"/>
<path d="M127.75 64C127.75 28.7925 99.2075 0.25 64 0.25C28.7925 0.25 0.25 28.7925 0.25 64C0.25 99.2075 28.7925 127.75 64 127.75V128C28.6525 128 0 99.3475 0 64C0 28.6525 28.6525 0 64 0C99.3475 0 128 28.6525 128 64C128 99.3475 99.3475 128 64 128V127.75C99.2075 127.75 127.75 99.2075 127.75 64Z" fill="url(#paint0_linear_71_2021)"/>
<path d="M64 119.775C94.8025 119.775 119.775 94.8021 119.775 63.9996C119.775 33.1971 94.8025 8.22461 64 8.22461C33.1975 8.22461 8.22498 33.1971 8.22498 63.9996C8.22498 94.8021 33.1975 119.775 64 119.775Z" fill="url(#paint1_linear_71_2021)"/>
<path d="M64 118.49C94.095 118.49 118.49 94.0948 118.49 63.9998C118.49 33.9048 94.095 9.50977 64 9.50977C33.905 9.50977 9.51001 33.9048 9.51001 63.9998C9.51001 94.0948 33.905 118.49 64 118.49Z" fill="#0A0A0A"/>
<path d="M45.575 33.1573C45.575 32.3398 45.9 31.5548 46.475 30.9773C47.0508 30.3999 47.8321 30.0745 48.6475 30.0723H54.8C55.615 30.0723 56.3975 30.3973 56.9725 30.9773C57.5475 31.5548 57.8725 32.3398 57.8725 33.1573V39.3048C57.8725 40.1223 58.1975 40.9073 58.7725 41.4873C59.3475 42.0673 60.13 42.3923 60.945 42.3923H67.03C67.845 42.3923 68.6275 42.0673 69.205 41.4873C69.7825 40.9098 70.105 40.1248 70.105 39.3048V33.1573C70.105 32.3398 70.43 31.5548 71.005 30.9773C71.5808 30.3999 72.3621 30.0745 73.1775 30.0723H79.325C80.14 30.0723 80.9225 30.3973 81.5 30.9773C82.0775 31.5573 82.4 32.3398 82.4 33.1573V39.3298C82.4 40.1473 82.075 40.9323 81.5 41.5123C80.9233 42.0898 80.1412 42.4152 79.325 42.4173H73.2025C72.3875 42.4173 71.605 42.7423 71.0275 43.3223C70.45 43.9023 70.1275 44.6848 70.1275 45.5048V51.6523C70.1275 52.4698 69.8025 53.2548 69.2275 53.8348C68.6525 54.4123 67.87 54.7398 67.055 54.7398H60.9025C60.0875 54.7398 59.305 54.4148 58.73 53.8348C58.1538 53.2555 57.8303 52.4718 57.83 51.6548V45.5073C57.83 44.6898 57.505 43.9048 56.93 43.3248C56.6451 43.0379 56.3062 42.8103 55.9329 42.655C55.5596 42.4996 55.1593 42.4197 54.755 42.4198H48.63C47.815 42.4198 47.0325 42.0948 46.4575 41.5148C45.8825 40.9348 45.5575 40.1523 45.5575 39.3348V33.1623H45.5725V33.1573H45.575ZM42.5 79.4123C42.5 80.2298 42.175 81.0148 41.6 81.5923C41.0239 82.1692 40.2428 82.4945 39.4275 82.4973H33.275C32.46 82.4973 31.6775 82.1723 31.1025 81.5923C30.5275 81.0123 30.2025 80.2298 30.2025 79.4123V73.2373C30.2025 72.4198 30.5275 71.6348 31.105 71.0573C31.6825 70.4798 32.4625 70.1548 33.2775 70.1523H39.4025C40.2175 70.1523 41 69.8273 41.575 69.2473C42.1525 68.6673 42.475 67.8848 42.475 67.0648V60.9573C42.475 60.1398 42.15 59.3548 41.575 58.7773C41 58.1998 40.2175 57.8723 39.4025 57.8723H33.2775C32.4625 57.8723 31.68 57.5473 31.105 56.9673C30.53 56.3873 30.205 55.6048 30.2025 54.7848V48.6098C30.2025 47.7923 30.5275 47.0073 31.105 46.4273C31.6825 45.8473 32.4625 45.5248 33.2775 45.5223H39.43C40.245 45.5223 41.0275 45.8473 41.6025 46.4273C42.1775 47.0048 42.5025 47.7898 42.5025 48.6098V54.7548C42.5025 55.5723 42.8275 56.3573 43.4025 56.9373C43.98 57.5173 44.76 57.8423 45.575 57.8423H51.7C52.515 57.8423 53.2975 58.1673 53.8725 58.7473C54.4475 59.3273 54.7725 60.1098 54.7725 60.9273V67.0998C54.7725 67.9173 54.4475 68.7023 53.8725 69.2798C53.2967 69.8571 52.5154 70.1826 51.7 70.1848H45.575C44.76 70.1848 43.9775 70.5098 43.4025 71.0898C42.8275 71.6698 42.5025 72.4523 42.5025 73.2723V73.2598V79.4098L42.5 79.4123ZM82.425 94.8423C82.425 95.6598 82.1 96.4448 81.525 97.0248C81.24 97.3113 80.901 97.5385 80.5277 97.6934C80.1544 97.8483 79.7542 97.9278 79.35 97.9273H73.1975C72.3825 97.9273 71.6 97.6023 71.025 97.0223C70.4475 96.4448 70.125 95.6598 70.125 94.8423V88.6948C70.125 87.8773 69.8 87.0923 69.2225 86.5123C68.6464 85.9354 67.8653 85.61 67.05 85.6073H60.965C60.15 85.6073 59.3675 85.9323 58.7925 86.5123C58.2175 87.0923 57.8925 87.8748 57.8925 88.6923V94.8398C57.8925 95.6573 57.5675 96.4423 56.9925 97.0198C56.4164 97.5967 55.6353 97.922 54.82 97.9248H48.6675C47.8525 97.9248 47.07 97.5998 46.495 97.0198C45.9175 96.4423 45.595 95.6573 45.595 94.8398V88.6648C45.595 87.8473 45.92 87.0623 46.495 86.4823C47.0725 85.9048 47.8525 85.5798 48.6675 85.5773H54.7925C55.6075 85.5773 56.39 85.2523 56.965 84.6723C57.5425 84.0923 57.865 83.3098 57.865 82.4898V76.3423C57.865 75.5248 58.19 74.7398 58.765 74.1598C59.3425 73.5823 60.1225 73.2573 60.9375 73.2548H67.09C67.905 73.2548 68.6875 73.5798 69.2625 74.1598C69.84 74.7373 70.1625 75.5223 70.1625 76.3423V82.4898C70.1625 83.3073 70.4875 84.0923 71.0625 84.6723C71.64 85.2498 72.42 85.5748 73.235 85.5773H79.36C80.175 85.5773 80.9575 85.9023 81.5325 86.4823C82.1075 87.0598 82.4325 87.8448 82.4325 88.6623V94.8373H82.42L82.425 94.8423ZM97.8 54.7748C97.8 55.5923 97.475 56.3773 96.9 56.9548C96.325 57.5323 95.5425 57.8598 94.7275 57.8598H88.6025C87.7875 57.8598 87.005 58.1848 86.43 58.7648C85.855 59.3448 85.53 60.1273 85.53 60.9448V67.0523C85.53 67.8698 85.855 68.6548 86.43 69.2348C87.0075 69.8148 87.7875 70.1398 88.6025 70.1398H94.7275C95.5425 70.1398 96.325 70.4648 96.9 71.0448C97.475 71.6248 97.8 72.4073 97.8 73.2248V79.3998C97.8 80.2173 97.475 81.0023 96.9 81.5823C96.325 82.1623 95.5425 82.4848 94.7275 82.4873H88.5775C87.7625 82.4873 86.98 82.1623 86.405 81.5823C85.83 81.0048 85.505 80.2198 85.505 79.3998V73.2523C85.505 72.4348 85.18 71.6498 84.605 71.0698C84.0289 70.4929 83.2478 70.1675 82.4325 70.1648H76.3075C75.4925 70.1648 74.71 69.8398 74.135 69.2598C73.5575 68.6823 73.235 67.8973 73.235 67.0798V60.9048C73.235 60.0873 73.56 59.3023 74.1375 58.7248C74.7133 58.1474 75.4946 57.822 76.31 57.8198H82.435C83.25 57.8198 84.0325 57.4948 84.6075 56.9148C85.1825 56.3348 85.5075 55.5523 85.5075 54.7323V48.5848C85.5075 47.7673 85.8325 46.9823 86.4075 46.4023C86.9825 45.8223 87.765 45.4973 88.58 45.4973H94.73C95.545 45.4973 96.3275 45.8223 96.9025 46.4023C97.4775 46.9823 97.8025 47.7648 97.8025 48.5848V54.7748H97.8Z" fill="url(#paint2_linear_71_2021)"/>
</g>
<path d="M89.82 65.672L90.04 65.863C90.16 65.965 90.16 65.965 90.281 66.074L90.539 66.304C90.582 66.344 90.625 66.379 90.668 66.418C93.055 68.547 95.621 71.535 95.844 74.887C95.891 75.859 95.887 76.75 95.488 77.652C95.457 77.722 95.43 77.789 95.398 77.859C94.793 79.074 93.664 79.844 92.414 80.297C90.082 81.007 87.5 80.875 85.164 80.215C85.012 80.062 85.066 79.844 85.062 79.637V79.32C85.062 79.2613 85.061 79.204 85.059 79.148C85.0597 78.968 85.0583 78.7883 85.055 78.609L85.043 77.082C85.023 74.125 84.723 71.617 83.031 69.122C83.1101 69.087 83.1885 69.0503 83.266 69.012C84.766 68.332 86.43 67.508 87.356 66.082C87.636 65.789 87.922 65.754 88.309 65.68L88.512 65.637C89.453 65.445 89.453 65.445 89.82 65.672Z" fill="#C1C1C1"/>
<path d="M128 128C163.346 128 192 99.3462 192 64C192 28.6538 163.346 0 128 0C92.6538 0 64 28.6538 64 64C64 99.3462 92.6538 128 128 128Z" fill="#78350F"/>
<path d="M128 122C160.033 122 186 96.0325 186 64C186 31.9675 160.033 6 128 6C95.9675 6 70 31.9675 70 64C70 96.0325 95.9675 122 128 122Z" fill="white"/>
<path d="M111.52 41.1358C110.455 40.4637 109.272 39.9989 108.034 39.7658C106.821 39.5335 105.573 39.5478 104.366 39.8078C103.184 40.0628 102.066 40.5532 101.078 41.2498C100.098 41.9492 99.2754 42.8465 98.664 43.8838C98.0469 44.9343 97.6496 46.0992 97.496 47.3078C97.3359 48.5398 97.4215 49.7912 97.748 50.9898C98.286 53.0018 100.772 53.3858 102.48 52.1618L106.832 49.0498L111.196 45.9298C112.902 44.7038 113.3 42.2558 111.52 41.1358ZM157.534 43.8838C156.92 42.8446 156.096 41.9451 155.114 41.2432C154.132 40.5413 153.014 40.0523 151.832 39.8078C150.624 39.5484 149.377 39.5348 148.164 39.7678C146.926 40 145.742 40.4642 144.676 41.1358C142.896 42.2558 143.296 44.7038 145.002 45.9278L149.366 49.0498L153.718 52.1618C155.426 53.3858 157.912 53.0018 158.45 50.9898C158.776 49.7912 158.862 48.5398 158.702 47.3078C158.548 46.0992 158.151 44.9343 157.534 43.8838ZM131.63 77.5978C129.531 76.8928 127.259 76.8928 125.16 77.5978C124 77.9918 122.988 78.6038 123.052 79.5258C123.168 80.9378 125.412 83.3538 127.034 83.8518C128.026 84.1518 128.648 84.1318 129.754 83.8518C131.376 83.4358 133.632 80.9378 133.738 79.5258C133.812 78.6038 132.788 77.9938 131.63 77.5978ZM120.512 73.0538C119.935 72.2892 119.212 71.6474 118.384 71.1658C117.566 70.6902 116.658 70.3905 115.718 70.2858C114.776 70.181 113.822 70.2688 112.914 70.5438C112.008 70.8238 111.154 71.2798 110.406 71.9038C109.656 72.529 109.033 73.293 108.572 74.1538C107.802 75.5938 109.026 77.1098 110.67 77.2958L114.822 77.7638L119.006 78.2398C120.65 78.4278 122.198 77.2338 121.776 75.6578C121.525 74.7169 121.096 73.8328 120.512 73.0538ZM146.248 71.7558C145.508 71.1439 144.655 70.682 143.738 70.3958C142.831 70.1211 141.878 70.0333 140.936 70.1378C139.996 70.2431 139.088 70.5435 138.27 71.0198C137.441 71.5012 136.717 72.143 136.14 72.9078C135.554 73.6855 135.124 74.57 134.876 75.5118C134.456 77.0878 136.004 78.2818 137.636 78.0938L141.822 77.6178L145.982 77.1498C147.628 76.9638 148.85 75.4498 148.082 74.0078C147.617 73.149 146.995 72.3851 146.248 71.7558Z" fill="#78350F"/>
<path d="M166.018 61.8002C169.571 57.9231 171.516 52.8389 171.456 47.5802C171.422 44.5334 170.713 41.5319 169.38 38.7922C165.648 31.0742 156.206 25.0482 146.542 27.0602C146.149 27.1468 145.759 27.2475 145.374 27.3622C143.946 27.7968 142.615 28.503 141.454 29.4422C138.872 31.5022 134.128 32.8822 128.702 32.8822H128.086C122.662 32.8822 117.918 31.4982 115.336 29.4382C114.175 28.4995 112.843 27.7939 111.414 27.3602C111.029 27.2449 110.639 27.1441 110.246 27.0582C100.584 25.0462 91.142 31.0722 87.41 38.7902C86.0769 41.5293 85.3679 44.53 85.334 47.5762C85.2765 52.8355 87.2213 57.9198 90.774 61.7982C90.9192 61.9597 91.0264 62.1517 91.088 62.36C91.1496 62.5682 91.164 62.7876 91.13 63.0022C88.802 76.1022 92.238 86.8822 99.31 94.5562C106.738 102.616 117.634 106.632 128.204 106.85H128.586C139.154 106.632 150.052 102.618 157.48 94.5582C164.552 86.8822 167.988 76.1042 165.66 63.0022C165.625 62.7876 165.639 62.568 165.701 62.3596C165.763 62.1512 165.87 61.9594 166.016 61.7982L166.018 61.8002ZM159.832 59.5282C159.575 59.7351 159.382 60.0108 159.276 60.3231C159.17 60.6354 159.154 60.9715 159.232 61.2922C164.722 84.1642 150.612 97.5162 134.402 100.378H134.392C132.828 100.657 131.247 100.837 129.66 100.918C129.566 100.918 129.46 100.928 129.366 100.928C129.07 100.948 128.766 100.948 128.47 100.96H128.396L128.376 100.958H128.322C128.026 100.948 127.722 100.948 127.426 100.928C127.332 100.928 127.226 100.916 127.13 100.916C125.544 100.835 123.964 100.655 122.4 100.376H122.388C106.18 97.5162 92.068 84.1642 97.56 61.2902C97.6371 60.9698 97.6216 60.6341 97.5154 60.3222C97.4092 60.0103 97.2166 59.7349 96.96 59.5282C95.173 58.1063 93.7342 56.2953 92.7533 54.233C91.7724 52.1707 91.2753 49.9117 91.3 47.6282C91.3268 45.4426 91.8341 43.2897 92.786 41.3222C95.546 35.6062 102.492 31.4462 109.016 32.8062C109.78 32.9622 111.828 33.6262 113.824 34.5622C114.548 34.9022 115.228 35.3262 115.864 35.8062C118.48 37.7822 123.114 39.0962 128.396 39.1022C133.68 39.0982 138.316 37.7822 140.93 35.8082C141.566 35.3282 142.244 34.9042 142.97 34.5642C144.964 33.6282 147.012 32.9642 147.778 32.8062C154.3 31.4462 161.246 35.6062 164.008 41.3242C164.959 43.2919 165.466 45.4448 165.492 47.6302C165.516 49.9134 165.019 52.172 164.038 54.2339C163.057 56.2958 161.619 58.1066 159.832 59.5282Z" fill="#78350F"/>
</g>
<defs>
<linearGradient id="paint0_linear_71_2021" x1="64" y1="0" x2="64" y2="128" gradientUnits="userSpaceOnUse">
<stop stop-color="#272727" stop-opacity="0.49"/>
<stop offset="1" stop-opacity="0"/>
</linearGradient>
<linearGradient id="paint1_linear_71_2021" x1="222.057" y1="61.9146" x2="-69.995" y2="65.7671" gradientUnits="userSpaceOnUse">
<stop stop-color="#F8F29C"/>
<stop offset="0.17" stop-color="#F6DB2A"/>
<stop offset="0.33" stop-color="#F4A435"/>
<stop offset="0.55" stop-color="#E85A46"/>
<stop offset="0.7" stop-color="#B93483"/>
<stop offset="0.87" stop-color="#502B6E"/>
<stop offset="1" stop-color="#2A2136"/>
</linearGradient>
<linearGradient id="paint2_linear_71_2021" x1="147.473" y1="62.9023" x2="-6.76498" y2="64.9298" gradientUnits="userSpaceOnUse">
<stop stop-color="#F8F29C"/>
<stop offset="0.17" stop-color="#F6DB2A"/>
<stop offset="0.33" stop-color="#F4A435"/>
<stop offset="0.55" stop-color="#E85A46"/>
<stop offset="0.7" stop-color="#B93483"/>
<stop offset="0.87" stop-color="#502B6E"/>
<stop offset="1" stop-color="#2A2136"/>
</linearGradient>
<clipPath id="clip0_71_2021">
<rect width="192" height="128" fill="white"/>
</clipPath>
<clipPath id="clip1_71_2021">
<rect width="128" height="128" fill="white"/>
</clipPath>
</defs>
</svg>

<svg xmlns="http://www.w3.org/2000/svg" fill="none" viewBox="0 0 192 128"><g clip-path="url(#a)"><path fill="#0a0a0a" d="M128 64c0 35.348-28.653 64-64 64S0 99.347 0 64 28.653 0 64 0s64 28.653 64 64"/><path fill="url(#b)" d="M127.75 64C127.75 28.793 99.207.25 64 .25S.25 28.793.25 64 28.793 127.75 64 127.75v.25C28.653 128 0 99.347 0 64S28.653 0 64 0s64 28.653 64 64-28.653 64-64 64v-.25c35.207 0 63.75-28.543 63.75-63.75"/><path fill="url(#c)" d="M64 119.775c30.802 0 55.775-24.973 55.775-55.775 0-30.803-24.973-55.775-55.775-55.775C33.197 8.225 8.225 33.197 8.225 64S33.197 119.775 64 119.775"/><path fill="#0a0a0a" d="M64 118.49c30.095 0 54.49-24.395 54.49-54.49S94.095 9.51 64 9.51 9.51 33.905 9.51 64 33.905 118.49 64 118.49"/><path fill="url(#d)" d="M45.575 33.158a3.08 3.08 0 0 1 3.072-3.085H54.8a3.06 3.06 0 0 1 2.172.904c.575.578.9 1.363.9 2.18v6.148c0 .818.325 1.602.9 2.182s1.358.905 2.173.905h6.085a3.084 3.084 0 0 0 3.075-3.087v-6.148a3.08 3.08 0 0 1 3.072-3.085h6.148a3.07 3.07 0 0 1 2.175.906c.578.58.9 1.362.9 2.18v6.172c0 .818-.325 1.602-.9 2.183a3.1 3.1 0 0 1-2.175.904h-6.123a3.07 3.07 0 0 0-2.174.905c-.578.58-.9 1.363-.9 2.183v6.148c0 .817-.326 1.602-.9 2.182a3.07 3.07 0 0 1-2.173.905h-6.153a3.06 3.06 0 0 1-2.172-.905 3.1 3.1 0 0 1-.9-2.18v-6.148c0-.817-.325-1.602-.9-2.182a3.06 3.06 0 0 0-2.175-.905H48.63a3.06 3.06 0 0 1-2.172-.905 3.1 3.1 0 0 1-.9-2.18v-6.172h.014v-.005zM42.5 79.411a3.085 3.085 0 0 1-3.072 3.085h-6.153a3.06 3.06 0 0 1-2.172-.904 3.1 3.1 0 0 1-.9-2.18v-6.175a3.084 3.084 0 0 1 3.075-3.085h6.125a3.085 3.085 0 0 0 3.072-3.088v-6.107a3.1 3.1 0 0 0-.9-2.18 3.07 3.07 0 0 0-2.172-.905h-6.125a3.06 3.06 0 0 1-2.173-.905 3.1 3.1 0 0 1-.902-2.183V48.61c0-.818.325-1.602.902-2.182a3.07 3.07 0 0 1 2.173-.905h6.152c.815 0 1.598.324 2.172.904.576.578.9 1.363.9 2.183v6.145c0 .817.325 1.602.9 2.182.578.58 1.358.906 2.173.906H51.7c.815 0 1.597.324 2.172.904s.9 1.363.9 2.18V67.1a3.08 3.08 0 0 1-3.072 3.085h-6.125c-.815 0-1.598.325-2.172.905s-.9 1.362-.9 2.182v-.012 6.15zm39.925 15.43c0 .818-.325 1.603-.9 2.183a3.06 3.06 0 0 1-2.175.902h-6.152a3.08 3.08 0 0 1-3.073-3.085v-6.147a3.085 3.085 0 0 0-3.075-3.087h-6.085c-.815 0-1.598.325-2.173.904-.575.58-.9 1.363-.9 2.18v6.148a3.085 3.085 0 0 1-3.072 3.085h-6.153a3.08 3.08 0 0 1-3.072-3.085v-6.175a3.084 3.084 0 0 1 3.072-3.088h6.126c.815 0 1.597-.325 2.172-.904.577-.58.9-1.363.9-2.183v-6.147a3.084 3.084 0 0 1 3.072-3.088h6.153a3.084 3.084 0 0 1 3.072 3.088v6.147a3.084 3.084 0 0 0 3.073 3.088h6.125c.815 0 1.597.325 2.172.904.576.578.9 1.363.9 2.18v6.176h-.012zM97.8 54.776c0 .818-.325 1.602-.9 2.18a3.07 3.07 0 0 1-2.172.905h-6.125c-.816 0-1.598.325-2.173.905s-.9 1.362-.9 2.18v6.107c0 .818.325 1.603.9 2.183.577.58 1.357.905 2.172.905h6.126c.815 0 1.597.325 2.172.905s.9 1.362.9 2.18V79.4c0 .817-.325 1.602-.9 2.182a3.07 3.07 0 0 1-2.172.906h-6.15a3.06 3.06 0 0 1-2.173-.906 3.1 3.1 0 0 1-.9-2.182v-6.148c0-.817-.325-1.602-.9-2.182a3.1 3.1 0 0 0-2.172-.905h-6.126a3.08 3.08 0 0 1-3.073-3.085v-6.175a3.084 3.084 0 0 1 3.076-3.085h6.125c.815 0 1.597-.325 2.172-.905s.9-1.362.9-2.182v-6.148a3.1 3.1 0 0 1 .9-2.182 3.06 3.06 0 0 1 2.173-.905h6.15c.815 0 1.597.325 2.172.905s.9 1.362.9 2.182v6.19z"/></g><g clip-path="url(#e)"><path fill="#78350f" d="M128 128c35.346 0 64-28.654 64-64S163.346 0 128 0 64 28.654 64 64s28.654 64 64 64"/><path fill="#fff" d="M171.468 47.58a20.72 20.72 0 0 1-5.44 14.22 1.43 1.43 0 0 0-.36 1.2c2.328 13.104-1.104 23.88-8.176 31.56-7.432 8.06-18.328 12.072-28.896 12.292h-.38c-10.572-.22-21.468-4.236-28.896-12.296C92.248 86.88 88.812 76.104 91.14 63a1.44 1.44 0 0 0-.36-1.2 20.72 20.72 0 0 1-3.36-23.008c3.732-7.72 13.176-13.748 22.84-11.732q.48.1 1.164.3c1.44.424 2.76 1.148 3.92 2.08 2.584 2.06 7.328 3.44 12.752 3.44h.616c5.428 0 10.172-1.376 12.752-3.44 1.16-.928 2.484-1.656 3.92-2.08q.688-.195 1.168-.3c9.664-2.012 19.108 4.016 22.84 11.732a20.6 20.6 0 0 1 2.072 8.788m-12.228 13.712a1.72 1.72 0 0 1 .6-1.76 15 15 0 0 0 5.664-11.9 14.8 14.8 0 0 0-1.488-6.308c-2.76-5.716-9.704-9.876-16.228-8.52-.764.16-2.812.824-4.808 1.76-.72.346-1.403.763-2.04 1.244-2.616 1.976-7.248 3.292-12.532 3.292s-9.92-1.32-12.532-3.292a12 12 0 0 0-2.04-1.244c-2-.936-4.044-1.6-4.808-1.76-6.524-1.36-13.472 2.8-16.232 8.52a14.8 14.8 0 0 0-1.484 6.304 15 15 0 0 0 5.66 11.9c.524.424.76 1.108.6 1.76-5.492 22.88 8.62 36.228 24.828 39.088h.008c1.614.282 3.244.465 4.88.548h.148q.447.034.896.036h.148l.3-.008q.3 0 .596-.024l.148-.004.148-.008a38 38 0 0 0 4.732-.536h.008c16.208-2.864 30.32-16.216 24.828-39.088m-51.2-21.524c1.237.233 2.419.697 3.484 1.368 1.784 1.12 1.384 3.568-.324 4.792l-4.36 3.12-4.356 3.116c-1.708 1.224-4.196.84-4.732-1.172a9.6 9.6 0 0 1-.252-3.68 9.1 9.1 0 0 1 1.168-3.428 8.5 8.5 0 0 1 2.416-2.632 9 9 0 0 1 3.288-1.44 9.2 9.2 0 0 1 3.668-.044m47.088 1.48a8.8 8.8 0 0 1 3.584 6.06 9.4 9.4 0 0 1-.252 3.68c-.536 2.016-3.024 2.4-4.732 1.176l-4.352-3.112-4.36-3.12c-1.712-1.228-2.112-3.676-.328-4.796a10 10 0 0 1 3.488-1.368 9.2 9.2 0 0 1 3.664.04 8.8 8.8 0 0 1 3.288 1.44M131.644 77.6a10.16 10.16 0 0 0-6.472 0c-1.16.396-2.168 1.008-2.108 1.928.12 1.412 2.36 3.828 3.984 4.328.992.3 1.612.28 2.72 0 1.624-.416 3.88-2.916 3.984-4.328.072-.92-.948-1.532-2.108-1.928m-13.252-6.432c.82.48 1.548 1.12 2.128 1.892a7.5 7.5 0 0 1 1.264 2.6c.42 1.58-1.128 2.772-2.772 2.584l-4.184-.48-4.152-.464c-1.64-.188-2.864-1.7-2.096-3.144a7.6 7.6 0 0 1 1.832-2.248c.748-.62 1.6-1.08 2.508-1.36a6.92 6.92 0 0 1 5.472.62m27.86.592a7.2 7.2 0 0 0-2.508-1.36 6.92 6.92 0 0 0-5.468.624 7.2 7.2 0 0 0-2.128 1.888 7.6 7.6 0 0 0-1.264 2.604c-.424 1.576 1.128 2.768 2.76 2.584l4.184-.48 4.16-.464c1.648-.188 2.868-1.7 2.1-3.144a8 8 0 0 0-1.836-2.252"/></g><defs><linearGradient id="b" x1="64" x2="64" y1="0" y2="128" gradientUnits="userSpaceOnUse"><stop stop-color="#272727" stop-opacity=".49"/><stop offset="1" stop-opacity="0"/></linearGradient><linearGradient id="c" x1="222.057" x2="-69.995" y1="61.915" y2="65.767" gradientUnits="userSpaceOnUse"><stop stop-color="#f8f29c"/><stop offset=".17" stop-color="#f6db2a"/><stop offset=".33" stop-color="#f4a435"/><stop offset=".55" stop-color="#e85a46"/><stop offset=".7" stop-color="#b93483"/><stop offset=".87" stop-color="#502b6e"/><stop offset="1" stop-color="#2a2136"/></linearGradient><linearGradient id="d" x1="147.473" x2="-6.765" y1="62.903" y2="64.93" gradientUnits="userSpaceOnUse"><stop stop-color="#f8f29c"/><stop offset=".17" stop-color="#f6db2a"/><stop offset=".33" stop-color="#f4a435"/><stop offset=".55" stop-color="#e85a46"/><stop offset=".7" stop-color="#b93483"/><stop offset=".87" stop-color="#502b6e"/><stop offset="1" stop-color="#2a2136"/></linearGradient><clipPath id="a"><path fill="#fff" d="M0 0h128v128H0z"/></clipPath><clipPath id="e"><path fill="#fff" d="M64 0h128v128H64z"/></clipPath></defs></svg>
